resources/svg/solid/guitar-amp.svg

<svg xmlns="http://www.w3.org/2000/svg" fill="currentColor" stroke="none" viewBox="0 0 24 24"><path d="M20,6h-2V4c0-1.103-0.897-2-2-2H8C6.897,2,6,2.897,6,4v2H4C2.897,6,2,6.897,2,8v12c0,1.103,0.897,2,2,2h16 c1.103,0,2-0.897,2-2V8C22,6.897,21.103,6,20,6z M8,4h8v2H8V4z M6,19c-0.553,0-1-0.448-1-1c0-0.553,0.447-1,1-1s1,0.447,1,1 C7,18.552,6.553,19,6,19z M6,16c-0.553,0-1-0.448-1-1c0-0.553,0.447-1,1-1s1,0.447,1,1C7,15.552,6.553,16,6,16z M9,19 c-0.553,0-1-0.448-1-1c0-0.553,0.447-1,1-1s1,0.447,1,1C10,18.552,9.553,19,9,19z M9,16c-0.553,0-1-0.448-1-1c0-0.553,0.447-1,1-1 s1,0.447,1,1C10,15.552,9.553,16,9,16z M12,19c-0.553,0-1-0.448-1-1c0-0.553,0.447-1,1-1s1,0.447,1,1C13,18.552,12.553,19,12,19z M12,16c-0.553,0-1-0.448-1-1c0-0.553,0.447-1,1-1s1,0.447,1,1C13,15.552,12.553,16,12,16z M15,19c-0.553,0-1-0.448-1-1 c0-0.553,0.447-1,1-1s1,0.447,1,1C16,18.552,15.553,19,15,19z M15,16c-0.553,0-1-0.448-1-1c0-0.553,0.447-1,1-1s1,0.447,1,1 C16,15.552,15.553,16,15,16z M18,19c-0.553,0-1-0.448-1-1c0-0.553,0.447-1,1-1s1,0.447,1,1C19,18.552,18.553,19,18,19z M18,16 c-0.553,0-1-0.448-1-1c0-0.553,0.447-1,1-1s1,0.447,1,1C19,15.552,18.553,16,18,16z M20,12H4V8h2h2h8h2h2V12z"/><path d="M14 9H16V11H14zM17 9H19V11H17z"/></svg>

<svg xmlns="http://www.w3.org/2000/svg" fill="currentColor" stroke="none" viewBox="0 0 24 24"><path d="M20 6h-2V4c0-1.103-.897-2-2-2H8c-1.103 0-2 .897-2 2v2H4c-1.103 0-2 .897-2 2v12c0 1.103.897 2 2 2h16c1.103 0 2-.897 2-2V8c0-1.103-.897-2-2-2zM8 4h8v2H8V4zM6 19a1 1 0 1 1 0-2 1 1 0 0 1 0 2zm0-3a1 1 0 1 1 0-2 1 1 0 0 1 0 2zm3 3a1 1 0 1 1 0-2 1 1 0 0 1 0 2zm0-3a1 1 0 1 1 0-2 1 1 0 0 1 0 2zm3 3a1 1 0 1 1 0-2 1 1 0 0 1 0 2zm0-3a1 1 0 1 1 0-2 1 1 0 0 1 0 2zm3 3a1 1 0 1 1 0-2 1 1 0 0 1 0 2zm0-3a1 1 0 1 1 0-2 1 1 0 0 1 0 2zm3 3a1 1 0 1 1 0-2 1 1 0 0 1 0 2zm0-3a1 1 0 1 1 0-2 1 1 0 0 1 0 2zm2-4H4V8h16v4z"/><path d="M14 9h2v2h-2zm3 0h2v2h-2z"/></svg>
